config/eww/img/memory-green.svg

<?xml version="1.0" encoding="UTF-8" standalone="no"?>
<svg
   version="1.0"
   id="glyph_󰍛"
   x="0px"
   y="0px"
   width="75px"
   height="100px"
   sodipodi:docname="memory-green.svg"
   inkscape:version="1.3 (0e150ed6c4, 2023-07-21)"
   xmlns:inkscape="http://www.inkscape.org/namespaces/inkscape"
   xmlns:sodipodi="http://sodipodi.sourceforge.net/DTD/sodipodi-0.dtd"
   xmlns="http://www.w3.org/2000/svg"
   xmlns:svg="http://www.w3.org/2000/svg">
  <defs
     id="defs1" />
  <sodipodi:namedview
     id="namedview1"
     pagecolor="#ffffff"
     bordercolor="#000000"
     borderopacity="0.25"
     inkscape:showpageshadow="2"
     inkscape:pageopacity="0.0"
     inkscape:pagecheckerboard="0"
     inkscape:deskcolor="#d1d1d1"
     inkscape:zoom="3.4133333"
     inkscape:cx="37.353516"
     inkscape:cy="49.951172"
     inkscape:window-width="1896"
     inkscape:window-height="1000"
     inkscape:window-x="10"
     inkscape:window-y="70"
     inkscape:window-maximized="1"
     inkscape:current-layer="glyph_󰍛" />
  <g
     id="󰍛"
     style="fill:#77e06d;fill-opacity:1">
    <path
       style="fill:#77e06d;stroke-width:0px;fill-opacity:1"
       d="M58.398437999999999 70.898437999999999 C47.949218999999971 70.898437999999970 27.050781000000029 70.898437999999970 16.601562000000058 70.898437999999970 C16.601562000000058 60.449219249999970 16.601561999999944 39.550781749999970 16.601562000000058 29.101562999999970 C27.050781000000029 29.101562999999970 47.949218999999971 29.101562999999970 58.398437999999942 29.101562999999970 C58.398437999999942 39.550781749999970 58.398437999999942 60.449219249999970 58.398437999999942 70.898437999999970 zM75.000000000000000 45.898437999999999 C75.000000000000000 43.798828499999985 75.000000000000000 39.599609500000014 75.000000000000000 37.500000000000028 C72.900390499999958 37.500000000000028 68.701171499999987 37.500000000000028 66.601562000000058 37.500000000000028 C66.601562000000058 35.400390750000014 66.601562000000058 31.201172249999985 66.601562000000058 29.101562999999970 Q66.601562000000058 25.781250000000028 64.160156000000029 23.339843999999999 Q61.718750000000000 20.898437999999970 58.398437999999942 20.898437999999970 C55.598958666666704 20.898437999999970 52.099609500000042 20.898437999999970 50.000000000000000 20.898437999999970 C50.000000000000000 18.798828499999985 50.000000000000000 14.599609500000014 50.000000000000000 12.500000000000028 C47.900390499999958 12.500000000000028 43.701171499999987 12.500000000000028 41.601562000000058 12.500000000000028 C41.601562000000058 14.599609500000014 41.601562000000058 18.798828499999985 41.601562000000058 20.898437999999970 C39.550781000000029 20.898437999999970 35.449218999999971 20.898437999999970 33.398437999999942 20.898437999999970 C33.398437999999942 18.798828499999985 33.398437999999942 14.599609500000014 33.398437999999942 12.500000000000028 C31.298828500000013 12.500000000000028 27.099609500000042 12.500000000000028 25.000000000000000 12.500000000000028 C25.000000000000000 14.599609500000014 25.000000000000000 18.798828499999985 25.000000000000000 20.898437999999970 C22.900390499999958 20.898437999999970 18.701171499999987 20.898437999999970 16.601562000000058 20.898437999999970 Q13.281250000000000 20.898437999999970 10.839843999999971 23.339843999999999 Q8.398438000000056 25.781250000000028 8.398438000000056 29.101562999999970 C8.398438000000056 31.901041999999990 8.398438000000056 35.400390750000014 8.398438000000056 37.500000000000028 C6.298828500000013 37.500000000000028 2.099609500000042 37.500000000000028 0.000000000000000 37.500000000000028 C0.000000000000000 39.599609500000014 0.000000000000000 43.798828499999985 0.000000000000000 45.898437999999970 C2.099609500000042 45.898437999999970 6.298828500000013 45.898437999999970 8.398438000000056 45.898437999999970 C8.398438000000056 47.949219249999970 8.398438000000056 52.050781749999970 8.398438000000056 54.101562999999970 C6.298828500000013 54.101562999999970 2.099609500000042 54.101562999999970 0.000000000000000 54.101562999999970 C0.000000000000000 56.201172249999985 0.000000000000000 60.400390750000014 0.000000000000000 62.500000000000028 C2.099609500000042 62.500000000000028 6.298828500000013 62.500000000000028 8.398438000000056 62.500000000000028 C8.398438000000056 64.599609500000014 8.398438000000056 68.798828499999985 8.398438000000056 70.898437999999970 Q8.398438000000056 74.218749999999972 10.839843999999971 76.660156499999999 Q13.281250000000000 79.101563000000027 16.601562000000058 79.101563000000027 C19.401041333333296 79.101563000000027 22.900390499999958 79.101563000000027 25.000000000000000 79.101563000000027 C25.000000000000000 81.201172249999985 25.000000000000000 85.400390750000014 25.000000000000000 87.499999999999972 C27.099609500000042 87.499999999999972 31.298828500000013 87.499999999999972 33.398437999999942 87.499999999999972 C33.398437999999942 85.400390750000014 33.398437999999942 81.201172249999985 33.398437999999942 79.101563000000027 C35.449218999999971 79.101563000000027 39.550781000000029 79.101563000000027 41.601562000000058 79.101563000000027 C41.601562000000058 81.201172249999985 41.601562000000058 85.400390750000014 41.601562000000058 87.499999999999972 C43.701171499999987 87.499999999999972 47.900390499999958 87.499999999999972 50.000000000000000 87.499999999999972 C50.000000000000000 85.400390750000014 50.000000000000000 81.201172249999985 50.000000000000000 79.101563000000027 C52.099609500000042 79.101563000000027 56.298828500000013 79.101563000000027 58.398437999999942 79.101563000000027 Q61.718750000000000 79.101563000000027 64.160156000000029 76.660156499999999 Q66.601562000000058 74.218749999999972 66.601562000000058 70.898437999999970 C66.601562000000058 68.098958666666675 66.601562000000058 64.599609500000014 66.601562000000058 62.500000000000028 C68.701171499999987 62.500000000000028 72.900390499999958 62.500000000000028 75.000000000000000 62.500000000000028 C75.000000000000000 60.400390750000014 75.000000000000000 56.201172249999985 75.000000000000000 54.101562999999970 C72.900390499999958 54.101562999999970 68.701171499999987 54.101562999999970 66.601562000000058 54.101562999999970 C66.601562000000058 52.050781749999970 66.601562000000058 47.949219249999970 66.601562000000058 45.898437999999970 C68.701171499999987 45.898437999999970 72.900390499999958 45.898437999999970 75.000000000000000 45.898437999999970 zM41.601562000000001 54.101562999999999 C39.550781000000029 54.101562999999970 35.449218999999971 54.101562999999970 33.398437999999942 54.101562999999970 C33.398437999999942 52.050781749999970 33.398437999999942 47.949219249999970 33.398437999999942 45.898437999999970 C35.449218999999971 45.898437999999970 39.550781000000029 45.898437999999970 41.601562000000058 45.898437999999970 C41.601562000000058 47.949219249999970 41.601562000000058 52.050781749999970 41.601562000000058 54.101562999999970 zM50.000000000000000 37.500000000000000 C43.750000000000000 37.500000000000028 31.250000000000000 37.500000000000028 25.000000000000000 37.500000000000028 C25.000000000000000 43.750000000000028 25.000000000000000 56.250000000000028 25.000000000000000 62.500000000000028 C31.250000000000000 62.500000000000028 43.750000000000000 62.500000000000028 50.000000000000000 62.500000000000028 C50.000000000000000 56.250000000000028 50.000000000000000 43.750000000000028 50.000000000000000 37.500000000000028 z"
       id="path_󰍛_0" />
  </g>
</svg>

<?xml version="1.0" encoding="UTF-8" standalone="no"?>
<svg
   version="1.0"
   id="glyph_󰍛"
   x="0px"
   y="0px"
   width="100"
   height="100"
   sodipodi:docname="memory-green.svg"
   inkscape:version="1.3.2 (091e20ef0f, 2023-11-25, custom)"
   xmlns:inkscape="http://www.inkscape.org/namespaces/inkscape"
   xmlns:sodipodi="http://sodipodi.sourceforge.net/DTD/sodipodi-0.dtd"
   xmlns="http://www.w3.org/2000/svg"
   xmlns:svg="http://www.w3.org/2000/svg">
  <defs
     id="defs1" />
  <sodipodi:namedview
     id="namedview1"
     pagecolor="#ffffff"
     bordercolor="#000000"
     borderopacity="0.25"
     inkscape:showpageshadow="2"
     inkscape:pageopacity="0.0"
     inkscape:pagecheckerboard="0"
     inkscape:deskcolor="#d1d1d1"
     inkscape:zoom="3.4133333"
     inkscape:cx="37.353516"
     inkscape:cy="49.804688"
     inkscape:window-width="1894"
     inkscape:window-height="1022"
     inkscape:window-x="10"
     inkscape:window-y="46"
     inkscape:window-maximized="1"
     inkscape:current-layer="glyph_󰍛" />
  <g
     id="󰍛"
     style="fill:#77e06d;fill-opacity:1"
     transform="translate(12.5)">
    <path
       style="fill:#77e06d;fill-opacity:1;stroke-width:0px"
       d="m 58.398438,70.898438 c -10.449219,0 -31.347657,0 -41.796876,0 0,-10.449219 0,-31.347656 0,-41.796875 10.449219,0 31.347657,0 41.796876,0 0,10.449219 0,31.347656 0,41.796875 z M 75,45.898438 c 0,-2.09961 0,-6.298828 0,-8.398438 -2.09961,0 -6.298829,0 -8.398438,0 0,-2.099609 0,-6.298828 0,-8.398437 q 0,-3.320313 -2.441406,-5.761719 -2.441406,-2.441406 -5.761718,-2.441406 c -2.799479,0 -6.298828,0 -8.398438,0 0,-2.09961 0,-6.298828 0,-8.398438 -2.09961,0 -6.298829,0 -8.398438,0 0,2.09961 0,6.298828 0,8.398438 -2.050781,0 -6.152343,0 -8.203124,0 0,-2.09961 0,-6.298828 0,-8.398438 -2.099609,0 -6.298828,0 -8.398438,0 0,2.09961 0,6.298828 0,8.398438 -2.09961,0 -6.298829,0 -8.398438,0 q -3.320312,0 -5.761718,2.441406 -2.441406,2.441406 -2.441406,5.761719 c 0,2.799479 0,6.298828 0,8.398437 -2.0996095,0 -6.2988285,0 -8.398438,0 0,2.09961 0,6.298828 0,8.398438 2.0996095,0 6.2988285,0 8.398438,0 0,2.050781 0,6.152344 0,8.203125 -2.0996095,0 -6.2988285,0 -8.398438,0 0,2.099609 0,6.298828 0,8.398437 2.0996095,0 6.2988285,0 8.398438,0 0,2.09961 0,6.298828 0,8.398438 q 0,3.320312 2.441406,5.761718 2.441406,2.441407 5.761718,2.441407 c 2.799479,0 6.298828,0 8.398438,0 0,2.099609 0,6.298828 0,8.398437 2.09961,0 6.298829,0 8.398438,0 0,-2.099609 0,-6.298828 0,-8.398437 2.050781,0 6.152343,0 8.203124,0 0,2.099609 0,6.298828 0,8.398437 2.099609,0 6.298828,0 8.398438,0 0,-2.099609 0,-6.298828 0,-8.398437 2.09961,0 6.298829,0 8.398438,0 q 3.320312,0 5.761718,-2.441407 2.441406,-2.441406 2.441406,-5.761718 c 0,-2.799479 0,-6.298828 0,-8.398438 2.099609,0 6.298828,0 8.398438,0 0,-2.099609 0,-6.298828 0,-8.398437 -2.09961,0 -6.298829,0 -8.398438,0 0,-2.050781 0,-6.152344 0,-8.203125 2.099609,0 6.298828,0 8.398438,0 z m -33.398438,8.203125 c -2.050781,0 -6.152343,0 -8.203124,0 0,-2.050781 0,-6.152344 0,-8.203125 2.050781,0 6.152343,0 8.203124,0 0,2.050781 0,6.152344 0,8.203125 z M 50,37.5 c -6.25,0 -18.75,0 -25,0 0,6.25 0,18.75 0,25 6.25,0 18.75,0 25,0 0,-6.25 0,-18.75 0,-25 z"
       id="path_󰍛_0" />
  </g>
</svg>
